X:1
T:Here's Good Health to the Piper  "a.k.a. The Piper's Maggot; see Biddy
M:9/8
L:1/8
Q:80
C:trad. Irish
S:Jig
K:HP
| {gcd}c2{e}A{g}A{d}c{e}A{gef}ec{G}A|
{g}e2{GdG}eac{d}A{gef}e2d|
{gcd}c2{e}A{g}A{d}c{e}A{gef}ec{G}A|  !
{g}BG{d}B{a}gdB{Gdc}d2e:|
{gcd}c2a{g}aecaec|
{gcd}c2a{g}aec{gef}e2d|  !
{gcd}c2a{g}aecaec|
{g}BG{d}B{a}gdB{Gdc}d2e:|

